!!!OTL: Die Verschmitzte.
!!!OTL-incipit: ES WAR EINMAL EIN MAEDCHEN VON REIZENDER GESTALT
!!!ARE: Europa, Mitteleuropa, Deutschland, Sachsen
!!!SCT: Z1093
!!!TXL: @@DE
!!!YEM: Copyright 1995, estate of Helmut Schaffrath.
**kern	**text
*ICvox	*
*M2/4	*
*k[b-e-]	*
*B-:	*
!LO:TX:a:t=Aus Sachſen.	!
{8f	Es
=1	=1
8f	war
8b-/	ein-
8b-/	-mal
8b-/	ein
=2	=2
4dd	Mäd-
8b-}	-chen
{8f	von
=3	=3
8.f	rei-
16g	-ʒen-
8f	-der
8e-	Ge-
=4	=4
4d	-ſtalt,
8r}	.
{8b-/	dem
=5	=5
8a	jun-
8cc	-gen
8ff	ſtol-
8b-	-ʒen
=6	=6
8a/L	Jun-
8ccJ	.
8ff}	-ker
{8b-	ge-
=7	=7
4a	-fiel
4g	ſie
=8	=8
4f	bald;
8r}	.
{8cc	er
=9	=9
8cc	traf
8a	auf
8a	ih-
8f	-ren
=10	=10
8fL	We-
8ddJ	.
8b-}	-gen
{8ff	die
=11	=11
8ff	Fei-
8ee-	-ne
8ee-	ein-
8dd	-mal
=12	=12
4dd	an:
8cc}	.
{8ff/	ver-
=13	=13
4ff/	-nimm,
8ee-/	.
8ee-/	ver-
=14	=14
(>4ee-/	-nimm,
8dd/)}	.
{8f	ver-
=15	=15
8g	-nimm,
8cc/	was
8b-/	er
8a	ge-
=16	=16
4b-/	-than!
8r}	.
==	==
!!!AGN: Romanze, Ballade
!!!ONB: ESAC (Essen Associative Code) Database: ZUCCAL
!!!AMT: simple duple
!!!AIN: vox
!!!EED: Helmut Schaffrath
!!!EEV: 1.0
!!!RDF**kern: >= above
!!!GTL: II. Gau- Leuschen.
!!!URL-scan: https://www.digitale-sammlungen.de/de/view/bsb11160573?page=201
!!!ENC: Anna Maria Matuszewska
!!!EEV: 2025/02/04
*-	*-
